X: 30130
T: Old Bush, The
R: reel
M: 4/4
K: Dmixolydian
AAGA cA A2|dcde fdec|AAGA cA A2|dfed cAdc|
A2 GA cA A2|dcde fd (3efg|afge fdec|dfed cAdc|
{G}A2 GA cA A2|dcde fdec|A2 GA cA A2|dfed cAdc|
{G}A2 GA cA A2|Dcde fd (3efg|af (3gfe fdec|dfed cA A2||
eg g2 ed (3Bcd|efge c3d|eg g2 afge|dfed cA A2|
eg g2 ag g2|fdec defg|af (3gfe fdec|dfed cA A2|
eg g2 ed (3Bcd|efge c3d|eg g2 afge|dfed cA A2|
eg g2 agbg|fd (3Bcd ed (3efg|af (3gfe fdec|dfed cAcd||
A3B cA A2|(3Bcd de fdec|A2 GA cA A2|(3Bcd ed cAdc|
ADGA cA A2|Dcde fd (3efg|afge fdec|dfed cAdc|
{G}A2 DA cA A2|Dcde fdec|A2 DA cA A2|DdcA GcAG|
A3B cA A2|D2 de fd (3efg|af (3gfe fdec|dfed cA A2||
g3e dG (3Bcd|efge c3d|eggg aage|dfed cA A2|
eg g2 agbg|fded (3Bcd fg|af (3gfe fdec|dfed (3Bcd ef|
g3e dG (3Bcd|efge (c4|c)fge fage|dfed cA A2|
eg g2 agbg|fd ed (3Bcd (3efg|af (3gfe fdec|dfed cAcd||
gA GA cA A2|Dcde fdec|ADGA cA A2|ADGA (3Bcd BG|
A2 GA cA A2|(3Bcd eA fA g2|abga fgef|dfed cAdc|
{G}A2 GA cA A2|(3Bcd de fdec|ADGA cA A2|(3Bcd ed cAdc|
GAAB cA A2|D2 de fd (3efg|df (3gfe fdec|dfed cdef||
g3e dG (3Bcd|efge (c4|c)fge g2 fage|dfed cA A2|
eg g2 agbg|fded (3Bcd fg|af (3gfe fdec|dfed cA A2|
eg g2 ed (3Bcd|efge c3d|eg g2 abge|dfed cA A2|
eg g2 agbg|fded (3Bcd fg|af (3gfe fdec|dfed cAdc||

